X:1
%
T:Highway to Limerick, The
M:C|
L:1/8
R:Reel
S:O'Neill - Dance Music of Ireland: 1001 Gems (1907), No. 644
Z:AK/Fiddler's Companion
K:A Minor
EAAB cBAc | BAGB dBGA | EAAB cBcd | (3e^fg dB BA A2 :|
eaag e^fge | dBGB AGED | eaag e^fga | bagb a2a2 |
eaag e^fge | dBgd BG G2 | EAAB {d}cBcd | (3e^fg dB BA A2 ||

